img/header/whatsApp.svg

<svg width="40" height="41" viewBox="0 0 40 41" fill="none" xmlns="http://www.w3.org/2000/svg">
<g filter="url(#filter0_d)">
<path d="M30.6265 9.38107C29.2428 7.98724 27.5959 6.8822 25.7815 6.13013C23.9672 5.37806 22.0215 4.99394 20.0574 5.00007C11.8249 5.00007 5.12436 11.7006 5.12436 19.9388C5.12436 22.5712 5.81402 25.1451 7.11984 27.4063L5 35.1489L12.9197 33.0705C15.1092 34.2631 17.5623 34.8889 20.0556 34.8907H20.0612C28.2937 34.8907 35 28.1902 35 19.952C35.005 17.9886 34.6209 16.0437 33.8699 14.2297C33.1189 12.4156 32.0159 10.7683 30.6246 9.38296L30.6265 9.38107ZM20.0612 32.3695C17.8362 32.3699 15.6519 31.7718 13.7375 30.6379L13.2834 30.3665L8.58394 31.597L9.83888 27.0162L9.54493 26.5452C8.29707 24.5681 7.63763 22.2767 7.64367 19.9388C7.64767 16.6452 8.9582 13.4878 11.2876 11.1594C13.6171 8.83097 16.7752 7.52188 20.0688 7.51938C23.3832 7.51938 26.5055 8.81578 28.8477 11.158C30.0035 12.3096 30.9197 13.6789 31.5433 15.1867C32.1668 16.6945 32.4854 18.3109 32.4806 19.9426C32.475 26.7958 26.905 32.3677 20.0612 32.3677V32.3695ZM26.8692 23.0667C26.498 22.8783 24.6608 21.9776 24.3197 21.8533C23.9787 21.7289 23.7299 21.6648 23.4775 22.0417C23.2306 22.4129 22.5127 23.2552 22.2941 23.5077C22.0755 23.7545 21.8588 23.7903 21.4876 23.6019C21.1164 23.4135 19.9086 23.0196 18.4841 21.7477C17.3761 20.7585 16.6243 19.5337 16.4057 19.1625C16.1871 18.7913 16.3812 18.5859 16.5715 18.4031C16.743 18.2373 16.9427 17.9678 17.1311 17.7493C17.3196 17.5307 17.378 17.378 17.5023 17.1255C17.6267 16.8787 17.5664 16.6601 17.4722 16.4717C17.378 16.2833 16.6299 14.4461 16.3246 13.698C16.025 12.9669 15.7122 13.0686 15.4824 13.0555C15.2638 13.0442 15.0169 13.0442 14.7701 13.0442C14.5233 13.0442 14.1162 13.1384 13.7752 13.5096C13.4341 13.8808 12.4675 14.7871 12.4675 16.6243C12.4675 18.4615 13.8035 20.2346 13.9919 20.4871C14.1803 20.734 16.6242 24.5082 20.3684 26.1231C21.2577 26.5056 21.9531 26.7355 22.4938 26.9126C23.3889 27.1952 24.201 27.1538 24.8436 27.0596C25.5615 26.9541 27.052 26.1589 27.3648 25.2865C27.6776 24.414 27.6776 23.6678 27.5833 23.5133C27.4948 23.3475 27.2479 23.2552 26.8711 23.0649L26.8692 23.0667Z" fill="url(#paint0_linear)"/>
</g>
<defs>
<filter id="filter0_d" x="0" y="0" width="40" height="40.1489" filterUnits="userSpaceOnUse" color-interpolation-filters="sRGB">
<feFlood flood-opacity="0" result="BackgroundImageFix"/>
<feColorMatrix in="SourceAlpha" type="matrix" values="0 0 0 0 0 0 0 0 0 0 0 0 0 0 0 0 0 0 127 0"/>
<feOffset/>
<feGaussianBlur stdDeviation="2.5"/>
<feColorMatrix type="matrix" values="0 0 0 0 1 0 0 0 0 1 0 0 0 0 1 0 0 0 1 0"/>
<feBlend mode="normal" in2="BackgroundImageFix" result="effect1_dropShadow"/>
<feBlend mode="normal" in="SourceGraphic" in2="effect1_dropShadow" result="shape"/>
</filter>
<linearGradient id="paint0_linear" x1="-1" y1="22.5" x2="38.5" y2="20" gradientUnits="userSpaceOnUse">
<stop stop-color="#0024E0"/>
<stop offset="1" stop-color="#00B5CE"/>
</linearGradient>
</defs>
</svg>

<svg width="40" height="41" fill="none" xmlns="http://www.w3.org/2000/svg"><g filter="url(#prefix__a)"><path d="M30.627 9.381a14.827 14.827 0 0 0-10.57-4.38C11.825 5 5.124 11.7 5.124 19.938c0 2.632.69 5.206 1.996 7.467L5 35.15l7.92-2.078a14.94 14.94 0 0 0 7.136 1.82h.005C28.294 34.89 35 28.19 35 19.952a14.86 14.86 0 0 0-4.375-10.569l.002-.002zM20.06 32.37c-2.225 0-4.41-.598-6.323-1.732l-.455-.272-4.7 1.231 1.256-4.58-.294-.472a12.318 12.318 0 0 1-1.901-6.606 12.435 12.435 0 0 1 12.425-12.42c3.314 0 6.437 1.297 8.779 3.639a12.35 12.35 0 0 1 3.633 8.785c-.006 6.853-5.576 12.425-12.42 12.425v.002zm6.808-9.303c-.371-.189-2.208-1.09-2.55-1.214-.34-.124-.59-.188-.841.189-.247.37-.965 1.213-1.184 1.466-.218.247-.435.282-.806.094-.372-.189-1.58-.582-3.004-1.854-1.108-.99-1.86-2.214-2.078-2.585-.219-.372-.025-.577.166-.76.171-.166.37-.435.56-.654.188-.218.246-.371.37-.623.125-.247.064-.466-.03-.654-.094-.189-.842-2.026-1.147-2.774-.3-.731-.613-.63-.843-.643-.218-.01-.465-.01-.712-.01-.247 0-.654.093-.995.465-.34.37-1.308 1.277-1.308 3.114 0 1.838 1.336 3.61 1.525 3.863.188.247 2.632 4.021 6.376 5.636.89.383 1.585.612 2.126.79.895.282 1.707.24 2.35.147.717-.106 2.208-.901 2.52-1.773.314-.873.314-1.62.22-1.774-.09-.166-.336-.258-.713-.448l-.002.002z" fill="url(#prefix__b)"/></g><defs><linearGradient id="prefix__b" x1="-1" y1="22.5" x2="38.5" y2="20" gradientUnits="userSpaceOnUse"><stop stop-color="#0024E0"/><stop offset="1" stop-color="#00B5CE"/></linearGradient><filter id="prefix__a" x="0" y="0" width="40" height="40.149" filterUnits="userSpaceOnUse" color-interpolation-filters="sRGB"><feFlood flood-opacity="0" result="BackgroundImageFix"/><feColorMatrix in="SourceAlpha" values="0 0 0 0 0 0 0 0 0 0 0 0 0 0 0 0 0 0 127 0"/><feOffset/><feGaussianBlur stdDeviation="2.5"/><feColorMatrix values="0 0 0 0 1 0 0 0 0 1 0 0 0 0 1 0 0 0 1 0"/><feBlend in2="BackgroundImageFix" result="effect1_dropShadow"/><feBlend in="SourceGraphic" in2="effect1_dropShadow" result="shape"/></filter></defs></svg>
